icons/Documet-Duplicate.svg

<svg width="24" height="24" viewBox="0 0 24 24" fill="none" xmlns="http://www.w3.org/2000/svg">
<g id="Documet-Duplicate">
<path id="Vector" d="M19 9.00001V14.95C19 15.6687 18.7145 16.358 18.2063 16.8663C17.698 17.3745 17.0087 17.66 16.29 17.66H10.87C10.1513 17.66 9.46196 17.3745 8.95374 16.8663C8.44552 16.358 8.16 15.6687 8.16 14.95V5.95001C8.16 5.23127 8.44552 4.54197 8.95374 4.03375C9.46196 3.52552 10.1513 3.24001 10.87 3.24001H13.21C13.4506 3.24184 13.6808 3.33892 13.85 3.51001L18.74 8.40001C18.8957 8.56244 18.9879 8.77533 19 9.00001Z" stroke="#00153F" stroke-width="1.5" stroke-miterlimit="10" stroke-linecap="round"/>
<path id="Vector_2" d="M13.58 3.63V7.71C13.58 7.9487 13.6748 8.17762 13.8436 8.3464C14.0124 8.51518 14.2413 8.61 14.48 8.61H18.56C18.5964 8.61114 18.6323 8.6012 18.6629 8.5815C18.6936 8.56181 18.7175 8.53329 18.7316 8.4997C18.7457 8.46612 18.7492 8.42905 18.7418 8.39339C18.7344 8.35774 18.7163 8.32518 18.69 8.3L13.89 3.5C13.8648 3.47368 13.8323 3.45562 13.7966 3.44819C13.761 3.44077 13.7239 3.44433 13.6903 3.45842C13.6567 3.4725 13.6282 3.49644 13.6085 3.52708C13.5888 3.55771 13.5789 3.5936 13.58 3.63Z" stroke="#00153F" stroke-width="1.5" stroke-linecap="round" stroke-linejoin="round"/>
<path id="Vector_3" d="M15.84 17.65V18.1C15.84 18.4559 15.7699 18.8083 15.6337 19.1371C15.4975 19.4659 15.2979 19.7646 15.0463 20.0163C14.7946 20.2679 14.4959 20.4675 14.1671 20.6037C13.8383 20.7399 13.4859 20.81 13.13 20.81H7.71C6.99126 20.81 6.30197 20.5245 5.79374 20.0163C5.28552 19.508 5 18.8187 5 18.1V9.10001C4.9947 8.74077 5.06088 8.38407 5.19469 8.05065C5.32851 7.71722 5.52728 7.41374 5.77946 7.15784C6.03164 6.90194 6.33218 6.69874 6.66361 6.56005C6.99503 6.42137 7.35073 6.34997 7.71 6.35001H8.16" stroke="#00153F" stroke-width="1.5" stroke-miterlimit="10" stroke-linecap="round"/>
</g>
</svg>

<svg xmlns="http://www.w3.org/2000/svg" fill="none" viewBox="0 0 24 24"><g stroke="currentColor" stroke-linecap="round" stroke-width="1.5"><path stroke-miterlimit="10" d="M19 9v5.95a2.71 2.71 0 0 1-2.71 2.71h-5.42a2.71 2.71 0 0 1-2.71-2.71v-9a2.71 2.71 0 0 1 2.71-2.71h2.34a.91.91 0 0 1 .64.27l4.89 4.89A.94.94 0 0 1 19 9Z"/><path stroke-linejoin="round" d="M13.58 3.63v4.08a.9.9 0 0 0 .9.9h4.08a.18.18 0 0 0 .13-.31l-4.8-4.8a.18.18 0 0 0-.31.13Z"/><path stroke-miterlimit="10" d="M15.84 17.65v.45a2.71 2.71 0 0 1-2.71 2.71H7.71A2.71 2.71 0 0 1 5 18.1v-9a2.71 2.71 0 0 1 2.71-2.75h.45"/></g></svg>
